X:9414
T:Le petit moulin
R:Mazurka
O:Alsace - Elsass
A:Toute l'Alsace
S:
B:La tradition Alsacienne.
Z:transcription (partition) : eric.forgeot@caramail.com
N:p.57
N:
M:3/4
L:1/4
Q:1/4=130
K:F
cAA | AGG | B/>A/ B/>d/ c/>B/ | A/>G/ A/>B/ c | cAA | AGG |  B/>A/ B/>d/ c/>[B/E/] | [FA][FA]z || 
c>d e/f/ | fee | edd | dcc | c>d e/f/ |fee | ede | f2 z ||
